X: 11895
T: Emma's
R: reel
M: 4/4
K: Eminor
|:E2 EF G2 GA|B2 Bd e2 ef|gfeg fedf|edB^c dBAF|
E2 EF G2 GA|B2 Bd e2 ef|gfeg fedf|1 gagf e2 E2:|2 gagf e2 ef||
|:geBe geBe|gece gece|afdB ABdf|afdB ABdf|
geBe geBe|gece gece|afdB ABdf|1 gagf e2 ef:|2 gagf e2 E2||

